src/images/svg/be-square/green-mark-icon.svg

<svg width="16" height="16" viewBox="0 0 16 16" fill="none" xmlns="http://www.w3.org/2000/svg">
<rect width="16" height="16" rx="4" fill="#85ACB0"/>
<path d="M10.1681 5.31008L7.02476 8.428L5.83189 7.24707C5.41278 6.83135 4.73345 6.83135 4.31434 7.24707C3.89522 7.6628 3.89522 8.33663 4.31434 8.75236L6.26482 10.6871C6.47438 10.8949 6.74842 11 7.02245 11C7.29649 11 7.57283 10.8949 7.78008 10.6871L11.6857 6.81536C12.1048 6.39964 12.1048 5.7258 11.6857 5.31008C11.2666 4.89664 10.5872 4.89664 10.1681 5.31008Z" fill="white"/>
</svg>

<svg xmlns="http://www.w3.org/2000/svg" width="16" height="16" fill="none"  xmlns:v="https://vecta.io/nano"><rect width="16" height="16" rx="4" fill="#85acb0"/><path d="M10.168 5.31L7.025 8.428 5.832 7.247a1.08 1.08 0 0 0-1.518 0 1.06 1.06 0 0 0 0 1.505l1.95 1.935c.21.208.484.313.758.313a1.07 1.07 0 0 0 .758-.313l3.906-3.872a1.06 1.06 0 0 0 0-1.505c-.419-.413-1.099-.413-1.518 0z" fill="#fff"/></svg>
